dist/svgs/unicons/line/shop.svg

<svg xmlns="http://www.w3.org/2000/svg" viewBox="0 0 24 24"><path d="M22 5H2a1 1 0 00-1 1v4a3 3 0 002 2.82V22a1 1 0 001 1h16a1 1 0 001-1v-9.18A3 3 0 0023 10V6a1 1 0 00-1-1zm-7 2h2v3a1 1 0 01-2 0zm-4 0h2v3a1 1 0 01-2 0zM7 7h2v3a1 1 0 01-2 0zm-3 4a1 1 0 01-1-1V7h2v3a1 1 0 01-1 1zm10 10h-4v-2a2 2 0 014 0zm5 0h-3v-2a4 4 0 00-8 0v2H5v-8.18a3.17 3.17 0 001-.6 3 3 0 004 0 3 3 0 004 0 3 3 0 004 0 3.17 3.17 0 001 .6zm2-11a1 1 0 01-2 0V7h2zM4.3 3H20a1 1 0 000-2H4.3a1 1 0 000 2z"/></svg>

<svg xmlns="http://www.w3.org/2000/svg" viewBox="0 0 24 24"><path d="M22,5H2A1,1,0,0,0,1,6v4a3,3,0,0,0,2,2.82V22a1,1,0,0,0,1,1H20a1,1,0,0,0,1-1V12.82A3,3,0,0,0,23,10V6A1,1,0,0,0,22,5ZM15,7h2v3a1,1,0,0,1-2,0ZM11,7h2v3a1,1,0,0,1-2,0ZM7,7H9v3a1,1,0,0,1-2,0ZM4,11a1,1,0,0,1-1-1V7H5v3A1,1,0,0,1,4,11ZM14,21H10V19a2,2,0,0,1,4,0Zm5,0H16V19a4,4,0,0,0-8,0v2H5V12.82a3.17,3.17,0,0,0,1-.6,3,3,0,0,0,4,0,3,3,0,0,0,4,0,3,3,0,0,0,4,0,3.17,3.17,0,0,0,1,.6Zm2-11a1,1,0,0,1-2,0V7h2ZM4.3,3H20a1,1,0,0,0,0-2H4.3a1,1,0,0,0,0,2Z"/></svg>
